X: 13612
T: Foggy Dew, The
R: waltz
M: 3/4
K: Eminor
|:B2 d2|e4 dB|e2 d2 B2|A4 B/A/G|D4 EF|G3 B AG|E4 D2|E6-|E2:|
E2 F2|G4 B2|d4 cB|A4 GA|B3 A GA|B2 g2 f2|e3 d Bd|e6-|e2 B2 d2|
e2 d2 B2|g3 e dB|A3 B AF|D2 E2 F2|G3 B AG|E4 ^D2|E6-|E2||

